X:317
T: UM DEINETWEGEN BIN ICH HIER
N: Z0314
O: Europa, Mitteleuropa, Deutschland, Sachsen
R: Lyrisches Lied, Romanze
M: 6/8
L: 1/16
K: G
d2 | B4A2G4e2 | c4B2A4
d2 | B4G2A4D2 | G3ABAG4
d2 | B4A2G4e2 | c4B2A4
d2 | B4G2A4D2 | G3ABAG4
D2 | A4B2c4B2 | AGAGFED4
d2 | B4G2A4D2 | G3ABAG4
D2 | A4B2c4B2 | AGAGFED4
d2 | B4G2A4D2 | G3ABAG4
D2 | A4B2c4B2 | AGAGFED4
d2 | B4G2A4D2 | G3ABAG4
D2 | A4B2c4B2 | AGAGFED4
d2 | B4G2A4D2 | G3ABAG4

